templates/main/source/images/big/tools-pay.svg

<?xml version="1.0" encoding="UTF-8"?>
<svg width="40px" height="40px" viewBox="0 0 40 40" version="1.1" xmlns="http://www.w3.org/2000/svg" xmlns:xlink="http://www.w3.org/1999/xlink">
    <!-- Generator: Sketch 52.5 (67469) - http://www.bohemiancoding.com/sketch -->
    <title>tools-pay</title>
    <desc>Created with Sketch.</desc>
    <g id="Page-1" stroke="none" stroke-width="1" fill="none" fill-rule="evenodd">
        <g id="02---02---Карточка_варианты_desktop" transform="translate(-889.000000, -313.000000)">
            <g id="1" transform="translate(132.000000, 49.000000)">
                <g id="цена-и-информация" transform="translate(600.000000, 104.000000)">
                    <g id="tools" transform="translate(157.000000, 160.000000)">
                        <g>
                            <rect id="Rectangle" fill="#EEEEEE" x="0" y="0" width="40" height="40" rx="2"></rect>
                            <g transform="translate(5.000000, 5.000000)">
                                <rect id="Rectangle-4" x="0" y="0" width="30" height="30"></rect>
                                <path d="M8.52864583,3.37413255 C8.86798177,3.44708902 9.21684245,3.49107212 9.54510417,3.5980052 C11.1824479,4.13135153 12.2391927,5.24248213 12.7244987,6.88363873 C12.9864974,7.76962313 12.949401,8.66597791 12.6952409,9.55173489 C12.6532227,9.69819363 12.6699023,9.79593892 12.7846094,9.91014945 C15.2363867,12.3516439 17.6852474,14.7961404 20.1267253,17.2479142 C20.2744727,17.3962833 20.4039909,17.3540741 20.5550195,17.3197791 C21.4637435,17.1134633 22.3783008,17.0466927 23.2769076,17.3349253 C25.0696094,17.910026 26.160306,19.1390968 26.5705534,20.9680117 C26.725957,21.6606888 26.6780143,22.3535932 26.5131771,23.0398571 C26.3713997,23.6299675 25.759401,23.8114035 25.3208073,23.3841261 C24.7283594,22.807024 24.1526367,22.2128655 23.5613281,21.6346264 C22.9242643,21.01154 21.9880143,21.0613905 21.4630599,21.735783 C21.0936914,22.2104094 21.0773307,22.9235088 21.4791927,23.3766212 C21.9114062,23.8638467 22.3875521,24.3124107 22.8454687,24.7769396 C23.0265755,24.9606498 23.2149284,25.1374919 23.3917513,25.3251592 C23.8026823,25.7615335 23.6275911,26.3575569 23.0489974,26.5042885 C20.4008919,27.1759064 17.7553841,25.522742 17.2153906,22.8488239 C17.0615365,22.0867836 17.122194,21.3240611 17.3097721,20.5738921 C17.3631836,20.3601624 17.3260417,20.2226641 17.1639844,20.0617414 C14.7523568,17.6658674 12.3475195,15.2632164 9.94815104,12.8551527 C9.79507161,12.701553 9.6646875,12.6604808 9.4556901,12.7109227 C8.46361328,12.9505328 7.4628776,12.9976543 6.49645833,12.6282781 C4.81595703,11.9860429 3.78819661,10.768616 3.42721354,9.00287849 C3.38501302,8.79660819 3.36409505,8.58597141 3.33333333,8.37738142 L3.33333333,7.96802469 C3.38961589,7.64135802 3.43067708,7.3111436 3.50559896,6.98875244 C3.64104167,6.40623782 4.24000651,6.23221572 4.6788737,6.64116309 C4.86180339,6.81163743 5.03306641,6.99448343 5.21157552,7.16973359 C5.68193359,7.63162443 6.13634115,8.11157245 6.62934896,8.5479922 C7.07897135,8.94611436 7.80121094,8.93242365 8.27494141,8.57077973 C8.95730469,8.04989604 9.01222005,7.12297596 8.38727865,6.48437947 C7.82527344,5.91014295 7.2528776,5.34604938 6.68230469,4.7802729 C6.46483073,4.56454191 6.32510417,4.32702404 6.4244987,4.00918129 C6.52252604,3.69579597 6.76023437,3.56048083 7.06630208,3.50926576 C7.31134766,3.46819363 7.55516276,3.41948018 7.79947917,3.37413255 L8.52864583,3.37413255 Z" id="Fill-1" fill="#666666"></path>
                                <path d="M6.96386604,23.947225 C7.11066978,23.9526723 7.27880863,23.8179887 7.43768714,23.6589286 C8.75174855,22.3434146 10.0669902,21.0291716 11.3812332,19.7137938 C11.4397913,19.6551903 11.4985309,19.5946803 11.545559,19.526998 C11.8132466,19.1420581 11.623591,18.6188485 11.1729662,18.4898846 C10.8642425,18.4015481 10.6332786,18.5319193 10.4230142,18.7427283 C9.10450423,20.0644613 7.7838607,21.3841062 6.4645336,22.7049767 C6.4112866,22.7583145 6.35758567,22.8129233 6.31432532,22.874205 C6.15658166,23.0980421 6.13819715,23.3390835 6.26312105,23.5801249 C6.38804495,23.8211209 6.59440543,23.9442744 6.96386604,23.947225 Z M3.33331064,23.6206162 C3.43794348,23.1545121 3.56781531,22.6983492 3.87354295,22.3160875 C3.96782599,22.1982904 4.06415176,22.0807657 4.17060036,21.9741356 C6.28681664,19.8552864 8.40462172,17.7380715 10.5222906,15.6206296 C10.5488006,15.5941195 10.5771264,15.5694707 10.5878847,15.5594386 C11.8671745,16.8396362 13.1417432,18.1151129 14.4304749,19.4048432 C14.4269341,19.4090194 14.3975189,19.4497377 14.3624749,19.4847818 C12.2506618,21.5973665 10.1416631,23.7127203 8.0248113,25.8202664 C7.00013574,26.8404026 5.52170316,26.9473505 4.39529996,26.092448 C3.84249355,25.6729179 3.51275256,25.1090808 3.37852292,24.4293532 C3.36699288,24.3708859 3.34851758,24.3138258 3.33331064,24.2561302 L3.33331064,23.6206162 Z" id="Fill-4" fill="#666666"></path>
                                <path d="M24.9305688,3.33333333 C25.1078435,3.45729925 25.3009015,3.5644692 25.4590077,3.70874338 C25.7774618,3.99936307 26.0783028,4.308715 26.3837186,4.61293357 C26.7174069,4.9454306 26.7524044,5.21839877 26.5074679,5.62172704 C25.8196875,6.75417122 25.1307634,7.88593996 24.438637,9.01581747 C24.1353256,9.51096066 23.6612357,9.56715735 23.2436907,9.16346885 C23.1355416,9.0589106 23.0327451,8.94899385 22.8976961,8.81115888 C21.3615587,10.3415728 19.8429887,11.8544703 18.3273009,13.364486 C17.6581859,12.7006177 17.0264015,12.0737185 16.4174455,11.4695591 C17.9188141,9.97453826 19.4378416,8.46200098 20.9699073,6.9364502 C20.8540725,6.81667202 20.7512303,6.72008397 20.6596879,6.61399472 C20.3727086,6.28131758 20.4143396,5.82444936 20.7908026,5.59705093 C22.0045515,4.86388237 23.2299662,4.14940101 24.4516753,3.42897576 C24.5160889,3.39101598 24.5877765,3.36494397 24.6560788,3.33333333 L24.9305688,3.33333333 Z" id="Fill-7" fill="#666666"></path>
                            </g>
                        </g>
                    </g>
                </g>
            </g>
        </g>
    </g>
</svg>

<svg width="40" height="40" viewBox="0 0 40 40" xmlns="http://www.w3.org/2000/svg" xmlns:xlink="http://www.w3.org/1999/xlink"><g id="Page-1" stroke="none" stroke-width="1" fill="none" fill-rule="evenodd"><g id="02---02---Карточка_варианты_desktop" transform="translate(-889 -313)"><g id="1" transform="translate(132 49)"><g id="цена-и-информация" transform="translate(600 104)"><g transform="translate(157 160)" id="tools"><rect id="Rectangle" fill="#EEE" x="0" y="0" width="40" height="40" rx="2"/><g transform="translate(5 5)"><path id="Rectangle-4" d="M0 0h30v30H0z"/><path d="M8.529 3.374c.339.073.688.117 1.016.224 1.637.533 2.694 1.644 3.18 3.286.261.886.224 1.782-.03 2.668-.042.146-.025.244.09.358 2.451 2.442 4.9 4.886 7.342 7.338.147.148.277.106.428.072.909-.207 1.823-.273 2.722.015 1.793.575 2.883 1.804 3.294 3.633.155.693.107 1.386-.058 2.072-.142.59-.754.771-1.192.344-.593-.577-1.168-1.171-1.76-1.75-.637-.622-1.573-.573-2.098.102-.37.474-.386 1.188.016 1.64.432.488.909.936 1.366 1.4.182.185.37.361.547.55.41.436.236 1.032-.343 1.178a4.737 4.737 0 01-5.834-3.655c-.153-.762-.093-1.525.095-2.275.053-.214.016-.351-.146-.512a2005.32 2005.32 0 01-7.216-7.207c-.153-.153-.283-.195-.492-.144-.992.24-1.993.287-2.96-.083-1.68-.642-2.708-1.86-3.069-3.625-.042-.206-.063-.417-.094-.626v-.409c.057-.327.098-.657.173-.98.135-.582.734-.756 1.173-.347.183.17.354.353.533.529.47.462.924.942 1.417 1.378.45.398 1.172.384 1.646.023.682-.521.737-1.448.112-2.087-.562-.574-1.134-1.138-1.705-1.704-.217-.215-.357-.453-.258-.77.099-.314.336-.45.642-.5.245-.042.49-.09.733-.136h.73z" id="Fill-1" fill="#666"/><path d="M6.964 23.947c.147.006.315-.129.474-.288l3.943-3.945a1.41 1.41 0 00.165-.187.674.674 0 00-.373-1.037c-.309-.088-.54.042-.75.253-1.318 1.321-2.64 2.641-3.958 3.962a1.342 1.342 0 00-.15.17.643.643 0 00-.052.705c.125.241.331.364.7.367zm-3.63-.326c.104-.466.234-.923.54-1.305a4.02 4.02 0 01.297-.342c2.116-2.119 4.234-4.236 6.351-6.353.027-.027.055-.052.066-.062l3.842 3.846c-.003.004-.032.045-.068.08-2.111 2.112-4.22 4.228-6.337 6.335-1.025 1.02-2.503 1.127-3.63.272-.553-.42-.882-.983-1.016-1.663-.012-.058-.03-.115-.046-.173v-.635z" id="Fill-4" fill="#666"/><path d="M24.93 3.333c.178.124.37.231.529.376.318.29.62.6.925.904.333.332.368.605.123 1.009a991.49 991.49 0 01-2.068 3.394c-.304.495-.778.551-1.195.147-.108-.104-.211-.214-.346-.352l-4.57 4.553-1.91-1.894 4.552-4.534c-.116-.12-.219-.216-.31-.322-.287-.333-.246-.79.13-1.017 1.215-.733 2.44-1.448 3.662-2.168.064-.038.136-.064.204-.096h.275z" id="Fill-7" fill="#666"/></g></g></g></g></g></g></svg>
